X: 27193
T: Miss Mulvihill's
R: polka
M: 2/4
K: Amajor
|:A>B Ac|ed Bc|d>c de|fe ce|
A>B Ac|ed Bc|dB fB|BA A2:|
|:a2 ge|fe ce|d>c de|fe ce|
a2 ge|fe ce|dB fB|BA A2:|

